Icons/com_netflix_mediaclient.svg

<svg viewBox="0 0 48 48" xmlns:xlink="http://www.w3.org/1999/xlink">
 <defs>
  <linearGradient id="0">
   <stop stop-opacity="0"/>
   <stop offset="1"/>
  </linearGradient>
  <linearGradient xlink:href="#0" id="1" gradientUnits="userSpaceOnUse" gradientTransform="translate(4e-7,-48)" y1="47" x2="0" y2="1"/>
  <clipPath id="2">
   <g transform="translate(0,-1004.3622)">
    <rect rx="4" y="1005.36" x="1" height="46" width="46" fill="#1890d0"/>
   </g>
  </clipPath>
  <clipPath id="3">
   <g transform="translate(0,-1004.3622)">
    <rect rx="4" y="1005.36" x="1" height="46" width="46" fill="#1890d0"/>
   </g>
  </clipPath>
 </defs>
 <g>
  <g transform="translate(0,-1004.3622)">
   <path d="m 5,1006.3622 c -2.216,0 -4,1.784 -4,4 l 0,37.25 c 0,2.216 1.784,4 4,4 l 38,0 c 2.216,0 4,-1.784 4,-4 l 0,-37.25 c 0,-2.216 -1.784,-4 -4,-4 l -38,0 z m -4,41.5 0,0.5 c 0,2.216 1.784,4 4,4 l 38,0 c 2.216,0 4,-1.784 4,-4 l 0,-0.5 c 0,2.216 -1.784,4 -4,4 l -38,0 c -2.216,0 -4,-1.784 -4,-4 z" opacity="0.02"/>
   <path d="m 1,1047.6122 0,0.25 c 0,2.216 1.784,4 4,4 l 38,0 c 2.216,0 4,-1.784 4,-4 l 0,-0.25 c 0,2.216 -1.784,4 -4,4 l -38,0 c -2.216,0 -4,-1.784 -4,-4 z" opacity="0.05"/>
   <rect width="46" height="46" x="1" y="1005.61" rx="4" opacity="0.1"/>
  </g>
 </g>
 <g>
  <g transform="translate(0,-1004.3622)">
   <rect rx="4" y="1005.36" x="1" height="46" width="46" fill="#db0103"/>
  </g>
 </g>
 <g>
  <rect transform="scale(1,-1)" width="46" height="46" x="1" y="-46.998" rx="4" opacity="0.1" fill="url(#1)"/>
 </g>
 <g>
  <g clip-path="url(#2)">
   <g opacity="0.1">
    <g>
     <path d="M 24.25 11 L 24.25 11.449219 C 24.25 11.449219 24.25 12.242188 24.25 12.933594 C 23.484375 12.167969 22.316406 11 22.316406 11 L 17 11 L 17.003906 34.816406 L 20.066406 37 L 23.261719 36.640625 C 23.261719 36.640625 23.273438 35.382812 23.28125 34.527344 C 24.332031 35.304688 25.769531 36.367188 25.769531 36.367188 L 31 35.886719 L 31 13.453125 L 28.160156 11.003906 Z M 24.25 11 " id="4"/>
     <path d="M 25.121094 29.683594 L 24.945312 29.703125 L 21.890625 11.640625 L 17.820312 11.636719 L 17.820312 34.308594 C 17.820312 34.308594 18.628906 34.203125 20.347656 34.027344 L 20.171875 16.792969 L 20.347656 16.777344 L 23.253906 33.757812 C 23.253906 33.757812 24.25 33.652344 27.628906 33.347656 L 27.628906 11.636719 L 25.03125 11.636719 Z M 25.121094 29.683594 "/>
    </g>
   </g>
  </g>
 </g>
 <g>
  <g clip-path="url(#3)">
   <g transform="translate(0,-1)">
    <g>
     <use xlink:href="#4"/>
     <path d="M 25.121094 29.683594 L 24.945312 29.703125 L 21.890625 11.640625 L 17.820312 11.636719 L 17.820312 34.308594 C 17.820312 34.308594 18.628906 34.203125 20.347656 34.027344 L 20.171875 16.792969 L 20.347656 16.777344 L 23.253906 33.757812 C 23.253906 33.757812 24.25 33.652344 27.628906 33.347656 L 27.628906 11.636719 L 25.03125 11.636719 Z M 25.121094 29.683594 " fill="#ffffff"/>
    </g>
   </g>
  </g>
 </g>
 <g>
  <g transform="translate(0,-1004.3622)">
   <path d="m 1,1043.3622 0,4 c 0,2.216 1.784,4 4,4 l 38,0 c 2.216,0 4,-1.784 4,-4 l 0,-4 c 0,2.216 -1.784,4 -4,4 l -38,0 c -2.216,0 -4,-1.784 -4,-4 z" opacity="0.1"/>
  </g>
 </g>
</svg>

<svg viewBox="0 0 48 48" xmlns:xlink="http://www.w3.org/1999/xlink"><defs><linearGradient id="linearGradient3764" x1="1" x2="47" gradientUnits="userSpaceOnUse" gradientTransform="translate(-48.000001,0.00221467)"><stop stop-color="#c70101" stop-opacity="1"/><stop offset="1" stop-color="#db0103" stop-opacity="1"/></linearGradient><clipPath id="clipPath-648297375"><g transform="translate(0,-1004.3622)"><rect rx="4" y="1005.36" x="1" height="46" width="46" fill="#1890d0"/></g></clipPath><clipPath id="clipPath-660987584"><g transform="translate(0,-1004.3622)"><rect rx="4" y="1005.36" x="1" height="46" width="46" fill="#1890d0"/></g></clipPath></defs><g><path d="m 1 43 l 0 0.25 c 0 2.216 1.784 4 4 4 l 38 0 c 2.216 0 4 -1.784 4 -4 l 0 -0.25 c 0 2.216 -1.784 4 -4 4 l -38 0 c -2.216 0 -4 -1.784 -4 -4 z m 0 0.5 l 0 0.5 c 0 2.216 1.784 4 4 4 l 38 0 c 2.216 0 4 -1.784 4 -4 l 0 -0.5 c 0 2.216 -1.784 4 -4 4 l -38 0 c -2.216 0 -4 -1.784 -4 -4 z" opacity="0.02"/><path d="m 1 43.25 l 0 0.25 c 0 2.216 1.784 4 4 4 l 38 0 c 2.216 0 4 -1.784 4 -4 l 0 -0.25 c 0 2.216 -1.784 4 -4 4 l -38 0 c -2.216 0 -4 -1.784 -4 -4 z" opacity="0.05"/><path d="m 1 43 l 0 0.25 c 0 2.216 1.784 4 4 4 l 38 0 c 2.216 0 4 -1.784 4 -4 l 0 -0.25 c 0 2.216 -1.784 4 -4 4 l -38 0 c -2.216 0 -4 -1.784 -4 -4 z" opacity="0.1"/></g><g><rect width="46" height="46" x="-47" y="1" rx="4" transform="matrix(0,-1,1,0,0,0)" fill="url(#linearGradient3764)" fill-opacity="1"/></g><g><g clip-path="url(#clipPath-648297375)"><g opacity="0.1"><!-- color: #db0103 --><g><path d="m 24.25 11 l 0 0.449 c 0 0 0 0.793 0 1.484 c -0.766 -0.766 -1.934 -1.934 -1.934 -1.934 l -5.316 0 l 0.004 23.816 l 3.063 2.184 l 3.195 -0.359 c 0 0 0.012 -1.258 0.02 -2.113 c 1.051 0.777 2.488 1.84 2.488 1.84 l 5.23 -0.48 l 0 -22.434 l -2.84 -2.449 m -3.91 -0.004" id="SVGCleanerId_0"/><path d="m 25.12 29.684 l -0.176 0.02 l -3.055 -18.06 l -4.07 -0.004 l 0 22.672 c 0 0 0.809 -0.105 2.527 -0.281 l -0.176 -17.234 l 0.176 -0.016 l 2.906 16.98 c 0 0 0.996 -0.105 4.375 -0.41 l 0 -21.711 l -2.598 0 m 0.09 18.05" fill="#000"/></g></g></g></g><g><g clip-path="url(#clipPath-660987584)"><g transform="translate(0,-1)"><!-- color: #db0103 --><g><use xlink:href="#SVGCleanerId_0"/><path d="m 25.12 29.684 l -0.176 0.02 l -3.055 -18.06 l -4.07 -0.004 l 0 22.672 c 0 0 0.809 -0.105 2.527 -0.281 l -0.176 -17.234 l 0.176 -0.016 l 2.906 16.98 c 0 0 0.996 -0.105 4.375 -0.41 l 0 -21.711 l -2.598 0 m 0.09 18.05" fill="#fff"/></g></g></g></g><g><g transform="translate(0,-1004.3622)"><path d="m 1 1043.36 0 4 c 0 2.216 1.784 4 4 4 l 38 0 c 2.216 0 4 -1.784 4 -4 l 0 -4 c 0 2.216 -1.784 4 -4 4 l -38 0 c -2.216 0 -4 -1.784 -4 -4 z" opacity="0.1"/></g></g></svg>
